X:518
T:Tommy's Tarbuckus
T:Sparky
R:Hornpipe
C:Alisdair Fraser
S:Mike Long
D:From Sharon Shannon's "Out the Gap"
Z:Transcription, chords:Mike Long
M:4/4
L:1/8
K:Bb
"Gm"(d2d)c BGGB|"F"AFcF dFcF|"Gm"d2cd BGGB|"F"AFcA AGGc|\
"Gm"(d2d)c BGGB|
"F"AFcF dFcF|"Gm"d2BG "F"AFFA|[1 "Dm"Ggdc "Gm"BGGc:|[2 "Dm"Ggdc "Gm"BGGF|]
|:"Gm"DGBG "Eb"EGBG|"F"FAcB AfcA|"Gm"DGBG "Eb"EGBG|"F"FfcA AGGF|\
"Gm"DGBG "Eb"EGBG|
"F"FAcB Affg|[1 "Bb"fdBd "F"cAFE|\
"D"DG^FA "Gm"BGGF:|[2 "Gm"g4 gfdc|dcBA GGBc|]
